**harm	**harte	**kern	**silbe	**kern	**silbe	**rhyme	**timestamp	**phrase	**leadinstrument
*M4/4	*M4/4	*ICvox	*	*ICvox	*	*	*	*	*
*	*	*VRlead	*	*VRharmonize	*	*	*	*	*
*	*	*Hstimme	*	*Nstimme	*	*	*	*	*
*E-:	*E-:	*E-:	*	*E-:	*	*	*	*	*
*	*	*M4/4	*	*M4/4	*	*	*	*	*
*	*	*clefF4	*	*clefF4	*	*	*	*	*
1r;	N	r;	.	r;	.	.	0	.	r
=1	=1	=1	=1	=1	=1	=1	=1	=1	=1
*>Letter>A	*>Letter>A	*>Letter>A	*>Letter>A	*>Letter>A	*>Letter>A	*>Letter>A	*>Letter>A	*>Letter>A	*>Letter>A
*>Label>Intro	*>Label>Intro	*>Label>Intro	*>Label>Intro	*>Label>Intro	*>Label>Intro	*>Label>Intro	*>Label>Intro	*>Label>Intro	*>Label>Intro
1V7	B-:sus4(b7)	1r	.	1r	.	.	0.372	newline	r
=2	=2	=2	=2	=2	=2	=2	=2	=2	=2
1V7	B-:sus4(b7)	1r	.	1r	.	.	2.98	.	r
=3	=3	=3	=3	=3	=3	=3	=3	=3	=3
*E:	*E:	*E:	*	*E:	*	*	*	*	*
1V7	B:sus4(b7)	1r	.	1r	.	.	5.588	.	r
=4	=4	=4	=4	=4	=4	=4	=4	=4	=4
1V7	B:sus4(b7)	2r	.	2r	.	.	8.196	.	r
.	.	4r	.	4r	.	.	.	.	.
.	.	8r	.	8r	.	.	.	.	.
.	.	8e	Whoa	8c#	Whoa	.	.	.	.
=5	=5	=5	=5	=5	=5	=5	=5	=5	=5
*>Letter>B	*>Letter>B	*>Letter>B	*>Letter>B	*>Letter>B	*>Letter>B	*>Letter>B	*>Letter>B	*>Letter>B	*>Letter>B
*>Label>Verse	*>Label>Verse	*>Label>Verse	*>Label>Verse	*>Label>Verse	*>Label>Verse	*>Label>Verse	*>Label>Verse	*>Label>Verse	*>Label>Verse
1I7	E:maj7	4d#	.	4B	.	.	10.805	newline	voice
.	.	4r	.	4r	.	.	.	.	.
.	.	8r	.	8r	.	.	.	.	.
.	.	[8d#	Oh,	[8B	Oh,	.	.	.	.
.	.	8.d#]	_	8.B]	_	.	.	.	.
.	.	[16c#	mer	[16B	mer	.	.	.	.
=6	=6	=6	=6	=6	=6	=6	=6	=6	=6
1I7	E:maj7	16c#]	_	16B]	_	.	13.38	.	voice
.	.	8A	cy,	8G#	cy,	.	.	.	.
.	.	[16B	mer	[16G#	mer	.	.	.	.
.	.	16B]	_	16G#]	_	.	.	.	.
.	.	8G#	cy	8E	cy	.	.	.	.
.	.	[16B	me	[16E	me	A	.	.	.
.	.	4B]	_	4E]	_	.	.	.	.
.	.	4r	.	4r	.	.	.	.	.
=7	=7	=7	=7	=7	=7	=7	=7	=7	=7
1vi7	C#:min7	4r	.	4r	.	.	15.955	.	voice
.	.	4r	.	4r	.	.	.	.	.
.	.	8r	.	8r	.	.	.	.	.
.	.	[8d#	Oh,	[8B	Oh,	.	.	.	.
.	.	8.d#]	_	8.B]	_	.	.	.	.
.	.	[16d#	things	[16B	things	.	.	.	.
=8	=8	=8	=8	=8	=8	=8	=8	=8	=8
1vi7	C#:min7	16d#]	_	16B]	_	.	18.53	.	voice
.	.	8B	ain't	8G#	ain't	.	.	.	.
.	.	[16B	what	[16G#	what	.	.	.	.
.	.	16B]	_	16G#]	_	.	.	.	.
.	.	8G#	they	8E	they	.	.	.	.
.	.	[16G#	used	[16E	used	.	.	.	.
.	.	16G#]	_	16E]	_	.	.	.	.
.	.	8E	to	8C#	to	.	.	.	.
.	.	[16E	be	[16C#	be	A	.	.	.
.	.	16E]	_	16C#]	_	.	.	.	.
.	.	[8.c#	no,	16r	.	.	.	.	.
.	.	.	.	16G#	no	B	.	.	.
.	.	.	.	[16A	_	.	.	.	.
=9	=9	=9	=9	=9	=9	=9	=9	=9	=9
1ii7	F#:min7	8.c#]	_	8.A]	_	.	21.105	newline	voice
.	.	16B	no	16G#	no	B	.	.	.
.	.	16G#	_	16E	_	.	.	.	.
.	.	8.r	.	8.r	.	.	.	.	.
.	.	8r	.	8r	.	.	.	.	.
.	.	[8c#	Where	[8A	Where	.	.	.	.
.	.	8c#]	_	8A]	_	.	.	.	.
.	.	16B	did	16G#	did	.	.	.	.
.	.	[16G#	all	[16E	all	.	.	.	.
=10	=10	=10	=10	=10	=10	=10	=10	=10	=10
1ii7	F#:min7	16G#]	_	16E]	_	.	23.667	.	voice
.	.	8A	the	8F#	the	.	.	.	.
.	.	[16B	blue	[16G#	blue	.	.	.	.
.	.	8.B]	_	8.G#]	_	.	.	.	.
.	.	[16c#	skies	[16A	skies	.	.	.	.
.	.	8.c#]	_	8.A]	_	.	.	.	.
.	.	[16G#	go?	[16E	go?	B	.	.	.
.	.	16G#]	_	16E]	_	.	.	.	.
.	.	8.r	.	8.r	.	.	.	.	.
=11	=11	=11	=11	=11	=11	=11	=11	=11	=11
1V	B:sus4(b7)	8r	.	8r	.	.	26.23	.	voice
.	.	[8B	Poi	[8G#	Poi	.	.	.	.
.	.	8B]	_	8G#]	_	.	.	.	.
.	.	16A	son	16F#	son	.	.	.	.
.	.	[16G#	is	[16E	is	.	.	.	.
.	.	16G#]	_	16E]	_	.	.	.	.
.	.	8A	the	8F#	the	.	.	.	.
.	.	[16G#	wind	[16E	wind	.	.	.	.
.	.	16G#]	_	16E]	_	.	.	.	.
.	.	8E	that	8C#	that	.	.	.	.
.	.	[16E	blows	[16C#	blows	B	.	.	.
=12	=12	=12	=12	=12	=12	=12	=12	=12	=12
1V	B:sus4(b7)	8E]	_	8C#]	_	.	28.792	.	voice
.	.	8r	.	8r	.	.	.	.	.
.	.	8E	from	8C#	from	.	.	.	.
.	.	16F#	the	16D#	the	.	.	.	.
.	.	[16G#	north	[16E	north	.	.	.	.
.	.	16G#]	_	16E]	_	.	.	.	.
.	.	8E	and	8C#	and	.	.	.	.
.	.	[16E	south	[16C#	south	.	.	.	.
.	.	16E]	_	16C#]	_	.	.	.	.
.	.	16F#	and	16D#	and	.	.	.	.
.	.	8E	east.	8C#	east.	A	.	.	.
=13	=13	=13	=13	=13	=13	=13	=13	=13	=13
*>Letter>B	*>Letter>B	*>Letter>B	*>Letter>B	*>Letter>B	*>Letter>B	*>Letter>B	*>Letter>B	*>Letter>B	*>Letter>B
*>Label>Verse	*>Label>Verse	*>Label>Verse	*>Label>Verse	*>Label>Verse	*>Label>Verse	*>Label>Verse	*>Label>Verse	*>Label>Verse	*>Label>Verse
1I7	E:maj7	4r	.	4r	.	.	31.354	newline	voice
.	.	4r	.	16r	.	.	.	.	.
.	.	.	.	[8.F#	(vocalizing)	.	.	.	.
.	.	8r	.	2F#]	_	.	.	.	.
.	.	16e	Whoa,	.	.	.	.	.	.
.	.	[16d#	_	.	.	.	.	.	.
.	.	8.d#]	_	.	.	.	.	.	.
.	.	[16d#	mer	.	.	.	.	.	.
=14	=14	=14	=14	=14	=14	=14	=14	=14	=14
1I7	E:maj7	16d#]	_	2r	.	.	33.897	.	voice
.	.	8B	cy,	.	.	.	.	.	.
.	.	[16B	mer	.	.	.	.	.	.
.	.	16B]	_	.	.	.	.	.	.
.	.	8G#	cy,	.	.	.	.	.	.
.	.	[16c#	me	.	.	A	.	.	.
.	.	8.c#]	_	8r	.	.	.	.	.
.	.	.	.	[8F#	Oh,	.	.	.	.
.	.	[16B	_	.	.	.	.	.	.
.	.	4B]	_	8.F#]	_	.	.	.	.
.	.	.	.	[16F#	mer	.	.	.	.
=15	=15	=15	=15	=15	=15	=15	=15	=15	=15
1vi7	C#:min7	4r	.	16F#]	_	.	36.441	.	voice
.	.	.	.	8E	cy.	.	.	.	.
.	.	.	.	16r	.	.	.	.	.
.	.	4r	.	4r	.	.	.	.	.
.	.	8r	.	2r	.	.	.	.	.
.	.	[8d#	Oh,	.	.	.	.	.	.
.	.	8.d#]	_	.	.	.	.	.	.
.	.	[16d#	things	.	.	.	.	.	.
=16	=16	=16	=16	=16	=16	=16	=16	=16	=16
1vi7	C#:min7	16d#]	_	2r	.	.	38.984	.	voice
.	.	8B	ain't	.	.	.	.	.	.
.	.	[16B	what	.	.	.	.	.	.
.	.	16B]	_	.	.	.	.	.	.
.	.	8G#	they	.	.	.	.	.	.
.	.	[16G#	used	.	.	.	.	.	.
.	.	16G#]	_	4r	.	.	.	.	.
.	.	8E	to	.	.	.	.	.	.
.	.	[16E	be,	.	.	A	.	.	.
.	.	16E]	_	16r	.	.	.	.	.
.	.	[8.c#	no,	8E	(vocalizing)	.	.	.	.
.	.	.	.	[16F#	_	.	.	.	.
=17	=17	=17	=17	=17	=17	=17	=17	=17	=17
1ii7	F#:min7	8.c#]	_	16F#]	_	.	41.528	newline	voice
.	.	.	.	8E	_	.	.	.	.
.	.	16B	no	[16F#	_	.	.	.	.
.	.	16G#	_	8.F#]	_	.	.	.	.
.	.	8.r	.	.	.	.	.	.	.
.	.	.	.	16G#	_	.	.	.	.
.	.	8r	.	4r	.	.	.	.	.
.	.	[8c#	Oil	.	.	.	.	.	.
.	.	8.c#]	_	16r	.	.	.	.	.
.	.	.	.	8F#	Have	.	.	.	.
.	.	[16B	was	[16F#	mer	.	.	.	.
=18	=18	=18	=18	=18	=18	=18	=18	=18	=18
1ii7	F#:min7	16B]	_	16F#]	_	.	44.115	.	voice
.	.	8G#	ted	8E	cy.	.	.	.	.
.	.	[16G#	on	16r	.	.	.	.	.
.	.	16G#]	_	4r	.	.	.	.	.
.	.	8A	the	.	.	.	.	.	.
.	.	[16G#	o	.	.	.	.	.	.
.	.	16G#]	_	2r	.	.	.	.	.
.	.	8F#	cean,	.	.	.	.	.	.
.	.	16r	.	.	.	.	.	.	.
.	.	16E	and	.	.	.	.	.	.
.	.	8F#	u-	.	.	.	.	.	.
.	.	[16G#	-pon	.	.	.	.	.	.
=19	=19	=19	=19	=19	=19	=19	=19	=19	=19
1V	B:sus4(b7)	16G#]	_	1r	.	.	46.702	.	voice
.	.	[8.B	our	.	.	.	.	.	.
.	.	16B]	_	.	.	.	.	.	.
.	.	8.G#	seas,	.	.	A	.	.	.
.	.	8r	.	.	.	.	.	.	.
.	.	8A	fish	.	.	.	.	.	.
.	.	8G#	full	.	.	.	.	.	.
.	.	16F#	of	.	.	.	.	.	.
.	.	[16G#	mer	.	.	.	.	.	.
=20	=20	=20	=20	=20	=20	=20	=20	=20	=20
1V	B:sus4(b7)	16G#]	_	1r	.	.	49.289	.	voice
.	.	8E	cu-	.	.	.	.	.	.
.	.	16E	-ry	.	.	A	.	.	.
.	.	8C#	_	.	.	.	.	.	.
.	.	8r	.	.	.	.	.	.	.
.	.	8r	.	.	.	.	.	.	.
.	.	[8e	Oh	.	.	.	.	.	.
.	.	8.e]	_	.	.	.	.	.	.
.	.	[16d#	_	.	.	.	.	.	.
=21	=21	=21	=21	=21	=21	=21	=21	=21	=21
*>Letter>B	*>Letter>B	*>Letter>B	*>Letter>B	*>Letter>B	*>Letter>B	*>Letter>B	*>Letter>B	*>Letter>B	*>Letter>B
*>Label>Verse	*>Label>Verse	*>Label>Verse	*>Label>Verse	*>Label>Verse	*>Label>Verse	*>Label>Verse	*>Label>Verse	*>Label>Verse	*>Label>Verse
1I7	E:maj7	4.d#]	.	1r	.	.	51.876	newline	voice
.	.	8r	.	.	.	.	.	.	.
.	.	8r	.	.	.	.	.	.	.
.	.	[8d#	Oh,	.	.	.	.	.	.
.	.	8.d#]	_	.	.	.	.	.	.
.	.	[16d#	mer	.	.	.	.	.	.
=22	=22	=22	=22	=22	=22	=22	=22	=22	=22
1I7	E:maj7	16d#]	_	2r	.	.	54.433	.	voice
.	.	8B	cy,	.	.	.	.	.	.
.	.	[16B	mer	.	.	.	.	.	.
.	.	16B]	_	.	.	.	.	.	.
.	.	8G#	cy,	.	.	.	.	.	.
.	.	[16c#	me	.	.	A	.	.	.
.	.	8.c#]	_	8r	.	.	.	.	.
.	.	.	.	8G#	(vocalizing)	.	.	.	.
.	.	[16B	_	.	.	.	.	.	.
.	.	4B_	_	16F#	_	.	.	.	.
.	.	.	.	16G#	_	.	.	.	.
.	.	.	.	16F#	_	.	.	.	.
.	.	.	.	[16F#	_	.	.	.	.
=23	=23	=23	=23	=23	=23	=23	=23	=23	=23
1vi7	C#:min7	8B]	_	16F#]	_	.	56.991	.	voice
.	.	.	.	8E	_	.	.	.	.
.	.	8r	.	.	.	.	.	.	.
.	.	.	.	[16F#	_	.	.	.	.
.	.	4r	.	16F#]	_	.	.	.	.
.	.	.	.	8G#	_	.	.	.	.
.	.	.	.	16r	.	.	.	.	.
.	.	8r	.	2r	.	.	.	.	.
.	.	[8d#	Oh,	.	.	.	.	.	.
.	.	8.d#]	_	.	.	.	.	.	.
.	.	[16d#	things	.	.	.	.	.	.
=24	=24	=24	=24	=24	=24	=24	=24	=24	=24
1vi7	C#:min7	16d#]	_	2r	.	.	59.549	.	voice
.	.	8B	ain't	.	.	.	.	.	.
.	.	[16B	what	.	.	.	.	.	.
.	.	16B]	_	.	.	.	.	.	.
.	.	8G#	they	.	.	.	.	.	.
.	.	[16G#	used	.	.	.	.	.	.
.	.	16G#]	_	4r	.	.	.	.	.
.	.	8E	to	.	.	.	.	.	.
.	.	[16E	be,	.	.	A	.	.	.
.	.	16E]	_	16r	.	.	.	.	.
.	.	[8.c#	no,	8G#	Oh,	.	.	.	.
.	.	.	.	[16F#	help	.	.	.	.
=25	=25	=25	=25	=25	=25	=25	=25	=25	=25
1ii7	F#:min7	8.c#]	_	16F#]	_	.	62.107	newline	voice
.	.	.	.	8E	us,	.	.	.	.
.	.	16B	no	[16F#	Fa	.	.	.	.
.	.	16G#	_	16F#]	_	.	.	.	.
.	.	8.r	.	16G#	ther.	.	.	.	.
.	.	.	.	8r	.	.	.	.	.
.	.	8r	.	2r	.	.	.	.	.
.	.	[8c#	Ra	.	.	.	.	.	.
.	.	8c#]	_	.	.	.	.	.	.
.	.	16B	di-	.	.	.	.	.	.
.	.	[16G#	-a	.	.	.	.	.	.
=26	=26	=26	=26	=26	=26	=26	=26	=26	=26
1ii7	F#:min7	16G#]	_	1r	.	.	64.669	.	voice
.	.	8A	tion	.	.	.	.	.	.
.	.	[16G#	un	.	.	.	.	.	.
.	.	16G#]	_	.	.	.	.	.	.
.	.	8A	der-	.	.	.	.	.	.
.	.	[16B	-ground	.	.	.	.	.	.
.	.	8B]	_	.	.	.	.	.	.
.	.	16B	and	.	.	.	.	.	.
.	.	[16B	in	.	.	.	.	.	.
.	.	16B]	_	.	.	.	.	.	.
.	.	[8.c#	the	.	.	.	.	.	.
=27	=27	=27	=27	=27	=27	=27	=27	=27	=27
1V	B:sus4(b7)	8.c#]	_	1r	.	.	67.231	.	voice
.	.	[16G#	sky,	.	.	C	.	.	.
.	.	16G#]	_	.	.	.	.	.	.
.	.	16r	.	.	.	.	.	.	.
.	.	[8G#	a	.	.	.	.	.	.
.	.	8G#]	_	.	.	.	.	.	.
.	.	16A	ni-	.	.	.	.	.	.
.	.	[16G#	-mals	.	.	.	.	.	.
.	.	16G#]	_	.	.	.	.	.	.
.	.	8A	and	.	.	.	.	.	.
.	.	[16G#	birds	.	.	.	.	.	.
=28	=28	=28	=28	=28	=28	=28	=28	=28	=28
1V	B:sus4(b7)	16G#]	_	2r	.	.	69.793	.	voice
.	.	8A	who	.	.	.	.	.	.
.	.	[16B	live	.	.	.	.	.	.
.	.	16B]	_	.	.	.	.	.	.
.	.	8B	near-	.	.	.	.	.	.
.	.	[16G#	-by	.	.	C	.	.	.
.	.	16G#]	_	8r	.	.	.	.	.
.	.	[8.G#	are	.	.	.	.	.	.
.	.	.	.	16E	(vocalizing)	.	.	.	.
.	.	.	.	[16F#	_	.	.	.	.
.	.	8.G#]	_	16F#]	_	.	.	.	.
.	.	.	.	8.G#	_	.	.	.	.
.	.	16E	dy-	.	.	C	.	.	.
=29	=29	=29	=29	=29	=29	=29	=29	=29	=29
*>Letter>B	*>Letter>B	*>Letter>B	*>Letter>B	*>Letter>B	*>Letter>B	*>Letter>B	*>Letter>B	*>Letter>B	*>Letter>B
*>Label>Verse	*>Label>Verse	*>Label>Verse	*>Label>Verse	*>Label>Verse	*>Label>Verse	*>Label>Verse	*>Label>Verse	*>Label>Verse	*>Label>Verse
1I7	E:maj7	16C#	-ing.	8F#	Help	.	72.356	newline	voice
.	.	8.r	.	.	.	.	.	.	.
.	.	.	.	16E	us,	.	.	.	.
.	.	.	.	[16F#	Fa	.	.	.	.
.	.	4r	.	16F#]	_	.	.	.	.
.	.	.	.	8G#	ther.	.	.	.	.
.	.	.	.	16r	.	.	.	.	.
.	.	8r	.	8r	.	.	.	.	.
.	.	[8d#	Oh,	[8G#	(vocalizing)	.	.	.	.
.	.	8.d#]	_	8.G#]	_	.	.	.	.
.	.	[16d#	mer	16B	_	.	.	.	.
=30	=30	=30	=30	=30	=30	=30	=30	=30	=30
1I7	E:maj7	16d#]	_	8r	.	.	74.895	.	voice
.	.	8B	cy,	.	.	.	.	.	.
.	.	.	.	16r	.	.	.	.	.
.	.	[16B	mer	16G#	_	.	.	.	.
.	.	16B]	_	8r	.	.	.	.	.
.	.	8G#	cy,	.	.	.	.	.	.
.	.	.	.	16r	.	.	.	.	.
.	.	[16c#	me	[16F#	_	A	.	.	.
.	.	4c#_	_	4F#]	_	.	.	.	.
.	.	16c#]	_	4r	.	.	.	.	.
.	.	8.B	_	.	.	.	.	.	.
=31	=31	=31	=31	=31	=31	=31	=31	=31	=31
1vi7	C#:min7	4r	.	8F#	Help	.	77.434	.	voice
.	.	.	.	16E	us,	.	.	.	.
.	.	.	.	[16F#	Fa	.	.	.	.
.	.	4r	.	16F#]	_	.	.	.	.
.	.	.	.	8G#	ther.	.	.	.	.
.	.	.	.	16r	.	.	.	.	.
.	.	8r	.	16r	.	.	.	.	.
.	.	.	.	[8.G#	Please	.	.	.	.
.	.	[8d#	Oh,	.	.	.	.	.	.
.	.	8.d#]	_	16G#]	_	.	.	.	.
.	.	.	.	8F#	have	.	.	.	.
.	.	[16d#	things	[16F#	mer	.	.	.	.
=32	=32	=32	=32	=32	=32	=32	=32	=32	=32
1vi7	C#:min7	16d#]	_	16F#]	_	.	79.973	.	voice
.	.	8B	ain't	8E	cy.	.	.	.	.
.	.	[16B	what	16r	.	.	.	.	.
.	.	16B]	_	16r	.	.	.	.	.
.	.	8G#	they	[8.B	Mm	.	.	.	.
.	.	16r	.	.	.	.	.	.	.
.	.	8r	.	4B]	_	.	.	.	.
.	.	[8f#	used	.	.	.	.	.	.
.	.	4f#_	_	16r	.	.	.	.	.
.	.	.	.	8F#	(vocalizing)	.	.	.	.
.	.	.	.	[16F#	_	.	.	.	.
=33	=33	=33	=33	=33	=33	=33	=33	=33	=33
1ii7	F#:min7	4f#_	_	16F#]	_	.	82.512	newline	voice
.	.	.	.	8F#	_	.	.	.	.
.	.	.	.	[16G#	_	.	.	.	.
.	.	16f#]	_	4G#_	_	.	.	.	.
.	.	8g#	to	.	.	.	.	.	.
.	.	[16e	be	.	.	A	.	.	.
.	.	8.e]	_	8.G#]	_	.	.	.	.
.	.	16r	.	[16F#	_	.	.	.	.
.	.	16r	.	16F#]	_	.	.	.	.
.	.	[8.c#	What	8F#	have	.	.	.	.
.	.	.	.	[16F#	mer	.	.	.	.
=34	=34	=34	=34	=34	=34	=34	=34	=34	=34
1ii7	F#:min7	8c#]	_	16F#]	_	.	85.09	.	voice
.	.	.	.	8E	cy,	.	.	.	.
.	.	16B	a-	.	.	.	.	.	.
.	.	[16G#	-bout	[16E	(vocalizing)	.	.	.	.
.	.	16G#]	_	4E]	_	.	.	.	.
.	.	8A	this	.	.	.	.	.	.
.	.	[16G#	o	.	.	.	.	.	.
.	.	16G#]	_	16r	.	.	.	.	.
.	.	8A	ver-	[8.G#	(vocalizing)	.	.	.	.
.	.	[16B	-crow	.	.	.	.	.	.
.	.	8.B]	_	16G#]	_	.	.	.	.
.	.	.	.	8F#	_	.	.	.	.
.	.	[16c#	ded	[16F#	_	.	.	.	.
=35	=35	=35	=35	=35	=35	=35	=35	=35	=35
1V	B:sus4(b7)	16c#]	_	16F#]	_	.	87.668	.	voice
.	.	8G#	land,	[8.E	_	D	.	.	.
.	.	[16B	how	.	.	.	.	.	.
.	.	16B]	_	4E]	_	.	.	.	.
.	.	8G#	much	.	.	.	.	.	.
.	.	[16G#	more	.	.	.	.	.	.
.	.	8G#]	_	8r	.	.	.	.	.
.	.	16A	a-	[8B	Please,	.	.	.	.
.	.	[16G#	-buse	.	.	.	.	.	.
.	.	16G#]	_	8.B]	_	.	.	.	.
.	.	8E	from	.	.	.	.	.	.
.	.	16E	man	[16c#	have	D	.	.	.
=36	=36	=36	=36	=36	=36	=36	=36	=36	=36
1V	B:sus4(b7)	16C#	_	16c#]	_	.	90.246	.	voice
.	.	8.r	.	8G#	mer-	.	.	.	.
.	.	.	.	[16F#	-cy	.	.	.	.
.	.	8.G#	can	8F#]	.	.	.	.	.
.	.	.	.	8r	.	.	.	.	.
.	.	[16G#	she	.	.	.	.	.	.
.	.	8G#]	_	2r	.	.	.	.	.
.	.	16E	stand?	.	.	D	.	.	.
.	.	16C#	_	.	.	.	.	.	.
.	.	8r	.	.	.	.	.	.	.
.	.	8e	Woo	.	.	.	.	.	.
=37	=37	=37	=37	=37	=37	=37	=37	=37	=37
*>Letter>B	*>Letter>B	*>Letter>B	*>Letter>B	*>Letter>B	*>Letter>B	*>Letter>B	*>Letter>B	*>Letter>B	*>Letter>B
*>Label>Verse	*>Label>Verse	*>Label>Verse	*>Label>Verse	*>Label>Verse	*>Label>Verse	*>Label>Verse	*>Label>Verse	*>Label>Verse	*>Label>Verse
1I7	E:maj7	[1d#	_	4r	.	.	92.823	newline	voice
.	.	.	.	8r	.	.	.	.	.
.	.	.	.	[8d#	Oh,	.	.	.	.
.	.	.	.	4d#_	_	.	.	.	.
.	.	.	.	8.d#]	_	.	.	.	.
.	.	.	.	[16c#	no,	.	.	.	.
=38	=38	=38	=38	=38	=38	=38	=38	=38	=38
1I7	E:maj7	4d#]	.	2.c#]	_	.	95.397	.	voice
.	.	4r	.	.	.	.	.	.	.
.	.	8r	.	.	.	.	.	.	.
.	.	[8e	Ooh	.	.	.	.	.	.
.	.	16e]	_	[4c#	no,	.	.	.	.
.	.	[8.d#	_	.	.	.	.	.	.
=39	=39	=39	=39	=39	=39	=39	=39	=39	=39
1vi7	C#:min7	2d#]	.	16c#]	_	.	97.971	.	voice
.	.	.	.	[8.G#	no,,	.	.	.	.
.	.	.	.	8.G#]	_	.	.	.	.
.	.	.	.	[16F#	no,	.	.	.	.
.	.	8r	.	8.F#]	_	.	.	.	.
.	.	[8c#	(vocalizing)	.	.	.	.	.	.
.	.	.	.	[16G#	no,	.	.	.	.
.	.	8.c#]	_	8.G#]	_	.	.	.	.
.	.	[16B	_	[16E	no	.	.	.	.
=40	=40	=40	=40	=40	=40	=40	=40	=40	=40
1vi7	C#:min7	16B]	_	16E]	_	.	100.545	.	voice
.	.	[8.G#	_	8.C#	.	.	.	.	.
.	.	4G#]	_	2.r	.	.	.	.	.
.	.	16r	.	.	.	.	.	.	.
.	.	[8.f#	No,	.	.	.	.	.	.
.	.	4f#_	_	.	.	.	.	.	.
=41	=41	=41	=41	=41	=41	=41	=41	=41	=41
1ii7	F#:min7	16f#]	_	1r	.	.	103.119	newline	voice
.	.	[8.g#	no,	.	.	.	.	.	.
.	.	8.g#]	_	.	.	.	.	.	.
.	.	[16e	no,	.	.	.	.	.	.
.	.	8e]	_	.	.	.	.	.	.
.	.	[8f#	no,	.	.	.	.	.	.
.	.	16f#]	_	.	.	.	.	.	.
.	.	8.c#	no...	.	.	.	.	.	.
=42	=42	=42	=42	=42	=42	=42	=42	=42	=42
1ii7	F#:min7	8r	.	1r	.	.	105.674	.	voice
.	.	16r	.	.	.	.	.	.	.
.	.	[16c#	My,	.	.	.	.	.	.
.	.	8.c#]	_	.	.	.	.	.	.
.	.	[16B	my,	.	.	.	.	.	.
.	.	4B_	_	.	.	.	.	.	.
.	.	8B]	_	.	.	.	.	.	.
.	.	16G#	_	.	.	.	.	.	.
.	.	16F#	_	.	.	.	.	.	.
=43	=43	=43	=43	=43	=43	=43	=43	=43	=43
1V	B:sus4(b7)	8.G#	oh,	1r	.	.	108.229	.	voice
.	.	[16B	my!	.	.	.	.	.	.
.	.	4B]	_	.	.	.	.	.	.
.	.	8r	.	.	.	.	.	.	.
.	.	16r	.	.	.	.	.	.	.
.	.	[16B	(Vocalizing)	.	.	.	.	.	.
.	.	16B]	_	.	.	.	.	.	.
.	.	8G#	_	.	.	.	.	.	.
.	.	[16G#	_	.	.	.	.	.	.
=44	=44	=44	=44	=44	=44	=44	=44	=44	=44
1V	B:sus4(b7)	4G#]	_	1r	.	.	110.784	.	voice
.	.	8.r	.	.	.	.	.	.	.
.	.	[16f#	Wee	.	.	.	.	.	.
.	.	8.f#]	_	.	.	.	.	.	.
.	.	[16e	_	.	.	.	.	.	.
.	.	4e]	.	.	.	.	.	.	.
=45	=45	=45	=45	=45	=45	=45	=45	=45	=45
*>Letter>C	*>Letter>C	*>Letter>C	*>Letter>C	*>Letter>C	*>Letter>C	*>Letter>C	*>Letter>C	*>Letter>C	*>Letter>C
*>Label>Solo	*>Label>Solo	*>Label>Solo	*>Label>Solo	*>Label>Solo	*>Label>Solo	*>Label>Solo	*>Label>Solo	*>Label>Solo	*>Label>Solo
*F:	*F:	*F:	*	*	*	*	*F:	*F:	*F:
1I7	F:maj7	1r	.	1r	.	.	113.34	newline	saxophone
=46	=46	=46	=46	=46	=46	=46	=46	=46	=46
1I7	F:maj7	1r	.	1r	.	.	115.923	.	saxophone
=47	=47	=47	=47	=47	=47	=47	=47	=47	=47
1vi7	D:min7	1r	.	1r	.	.	118.507	.	saxophone
=48	=48	=48	=48	=48	=48	=48	=48	=48	=48
1vi7	D:min7	1r	.	1r	.	.	121.09	.	saxophone
=49	=49	=49	=49	=49	=49	=49	=49	=49	=49
1ii7	G:min7	1r	.	1r	.	.	123.674	newline	saxophone
=50	=50	=50	=50	=50	=50	=50	=50	=50	=50
1ii7	G:min7	1r	.	1r	.	.	126.251	.	saxophone
=51	=51	=51	=51	=51	=51	=51	=51	=51	=51
1V7	C:sus4(b7)	1r	.	1r	.	.	128.827	.	saxophone
=52	=52	=52	=52	=52	=52	=52	=52	=52	=52
1V7	C:sus4(b7)	1r	.	1r	.	.	131.404	.	saxophone
=53	=53	=53	=53	=53	=53	=53	=53	=53	=53
*>Label>>Fadeout	*>Label>>Fadeout	*>Label>>Fadeout	*>Label>>Fadeout	*>Label>>Fadeout	*>Label>>Fadeout	*>Label>>Fadeout	*>Label>>Fadeout	*>Label>>Fadeout	*>Label>>Fadeout
*b-:	*b-:	*b-:	*	*	*	*	*b-:	*b-:	*b-:
1i7	B-:min9	1r	.	1r	.	.	133.981	newline	saxophone
=54	=54	=54	=54	=54	=54	=54	=54	=54	=54
1i7	B-:min9	1r	.	1r	.	.	136.557	.	saxophone
=55	=55	=55	=55	=55	=55	=55	=55	=55	=55
1i7	B-:min9	1r	.	1r	.	.	139.134	.	saxophone
=56	=56	=56	=56	=56	=56	=56	=56	=56	=56
1i7	B-:min9	1r	.	1r	.	.	141.71	.	saxophone
=57	=57	=57	=57	=57	=57	=57	=57	=57	=57
1i7	B-:min9	1r	.	1r	.	.	143.964	.	saxophone
=58	=58	=58	=58	=58	=58	=58	=58	=58	=58
1i7	B-:min9	1r	.	1r	.	.	144.287	.	saxophone
=59	=59	=59	=59	=59	=59	=59	=59	=59	=59
1i7	B-:min9	1r	.	1r	.	.	148.151	.	saxophone
=60	=60	=60	=60	=60	=60	=60	=60	=60	=60
1i7	B-:min9	1r	.	1r	.	.	148.473	.	saxophone
1r;	N	r;	.	r;	.	.	151.286	.	r
*-	*-	*-	*-	*-	*-	*-	*-	*-	*-
!!!BillboardChartDate: 1971/08/07
!!!BillboardPeak: 4
!!!BillboardWeeksOnChart: 12
!!!COC: Marvin Gaye
!!!ENC: Nathaniel Condit-Schultz
!!!EST: Awating manual error checking and editing.
!!!OTL: Mercy Mercy Me (The Ecology)
!!!RDF**harte: Chris Harte's syntax, used by MIREX
!!!RDF**harmony: **recip + pitch class of root + harmonic quality
!!!RDF**leadinstrument: original McGill primary instrumentation annotation
!!!RDF**phrase: newline = linebreak in original McGill transcription
!!!RDF**timestamp: McGill audio timestamp in seconds
!!!RDT: 2017/01/12/
!!!SampleActualRank: 10
!!!SampleID#: 0819
!!!SampleTargetRank: 10
!!!MBID: 3435f8a3-c934-496a-8191-ad0b667afaa4
